frontend/public/svg/interface/doc.svg

<svg width="139" height="164" viewBox="0 0 139 164" fill="none" xmlns="http://www.w3.org/2000/svg">
<g clip-path="url(#clip0)">
<path d="M138.217 84.0462C138.217 98.8257 138.262 113.605 138.187 128.385C138.209 132.172 137.977 135.958 137.493 139.714C136.49 146.852 132.761 152.406 126.748 156.414C122.354 159.425 117.265 161.279 111.956 161.801C91.8761 163.801 71.652 163.925 51.5488 162.171C43.591 161.478 35.55 161.454 27.8051 159.254C23.7697 158.194 19.8289 156.806 16.023 155.102C8.70901 151.643 4.28973 145.757 2.57189 137.808C1.52697 133.382 0.971024 128.856 0.91394 124.311C1.03849 98.9197 1.1253 73.5276 1.17433 48.1354C1.25767 40.5551 1.84376 32.989 2.92867 25.4857C3.35997 22.106 4.23538 18.7971 5.53244 15.6446C9.07621 7.29288 15.3564 2.24274 24.6662 1.70212C34.9205 1.10576 45.1839 0.569936 55.4512 0.341114C64.9596 0.126553 74.4823 0.199665 83.9919 0.427839C91.2115 0.601562 98.4214 1.20569 105.634 1.64389C107.541 1.7706 109.37 2.45065 110.893 3.60058C120.085 10.362 128.485 18.1321 135.932 26.7637C138.061 29.2024 138.65 31.9664 138.601 35.1615C138.336 51.4539 138.234 67.7493 138.074 84.0436L138.217 84.0462ZM75.0538 155.573C84.5778 155.227 95.2103 154.86 105.843 154.441C108.122 154.352 110.4 154.164 112.654 153.849C116.066 153.365 119.248 151.858 121.779 149.529C125.601 146.111 128.158 141.965 128.613 136.839C129.048 131.947 129.18 127.023 129.321 122.11C129.581 113.035 129.767 103.96 129.949 94.8852C130.032 90.7255 130.413 86.527 129.999 82.4121C128.969 72.2065 129.361 61.993 129.326 51.7842C129.313 48.0018 129.261 44.2188 129.145 40.4403C129.089 38.5754 127.415 37.1249 125.305 37.0536C120.368 36.8857 115.426 36.8453 110.493 36.6048C108.223 36.4669 105.966 36.1656 103.74 35.7027C101.748 35.3138 99.664 32.8567 99.4388 30.8537C99.2507 29.3544 99.142 27.8465 99.1133 26.3358C99.086 21.7983 99.1433 17.2607 99.1381 12.7232C99.0769 11.9769 98.7729 11.2707 98.2717 10.7126C97.7698 10.1546 97.0993 9.77563 96.3611 9.6327C95.2272 9.53028 94.0919 9.40018 92.9554 9.38073C78.895 9.13895 64.8346 8.86261 50.7743 8.71417C45.0779 8.65453 39.3776 8.88647 33.6792 8.99018C29.4873 9.09305 25.3474 9.93995 21.4545 11.4919C16.0211 13.6071 12.9362 17.6566 12.4292 23.4802C12.3145 25.3683 12.3331 27.2622 12.4851 29.1477C13.1745 41.6305 12.9239 54.1122 12.6765 66.602C12.2944 85.8982 12.0783 105.199 11.9221 124.498C11.8518 129.038 12.1108 133.577 12.6967 138.08C12.9894 140.544 13.9104 142.892 15.3723 144.901C16.8342 146.911 18.7882 148.513 21.0483 149.557C23.4378 150.705 25.952 151.575 28.5413 152.15C34.085 153.484 39.747 154.272 45.4457 154.502C54.9462 154.771 64.4395 155.179 75.0538 155.573ZM114.526 29.0686C116.348 28.9733 117.846 28.9941 119.295 28.7685C119.831 28.6849 120.343 28.0758 120.727 27.5961C120.783 27.4272 120.798 27.2473 120.771 27.0714C120.743 26.8954 120.674 26.728 120.569 26.5839C117.883 23.0697 114.595 20.054 110.858 17.6753C110.566 17.6308 110.267 17.649 109.983 17.7279C109.698 17.8068 109.433 17.9446 109.206 18.133C109.069 21.05 109 23.9771 109.111 26.8941C109.196 27.2461 109.366 27.5719 109.606 27.8443C109.845 28.1167 110.147 28.3277 110.487 28.4583C111.816 28.7581 113.167 28.9614 114.526 29.0673V29.0686Z" fill="black"/>
<path d="M69.0014 56.3711C80.027 56.5228 91.0527 56.6548 102.078 56.8414C104.739 56.8584 107.397 57.015 110.041 57.3111C111.523 57.5984 112.968 58.052 114.347 58.6633C115.488 59.0833 116.804 61.1467 116.765 62.2791C116.727 63.3869 115.203 65.4132 114.193 65.8093C110.592 67.2185 106.817 67.4979 103.009 67.5536C95.4043 67.6645 87.7967 67.9484 80.1969 67.8129C70.3189 67.6347 60.4469 67.131 50.5727 66.7382C44.4948 66.4964 38.4176 66.2338 32.3463 65.9065C30.4248 65.889 28.5691 65.2077 27.0964 63.9782C26.6424 63.6367 26.2746 63.1947 26.0223 62.6868C25.7699 62.179 25.64 61.619 25.6429 61.0524C25.708 59.7494 26.896 57.7744 28.0514 57.5643C29.8894 57.1479 31.7603 56.8921 33.643 56.7996C45.4302 56.7309 57.2182 56.7648 69.0053 56.7648L69.0014 56.3711Z" fill="black"/>
<path d="M72.5581 84.8527C62.0742 84.5798 51.8114 84.3723 41.5539 84.0138C38.1412 83.8797 34.7399 83.54 31.3686 82.9955C29.906 82.6545 28.5232 82.0355 27.2957 81.1733C27.0133 80.9458 26.7836 80.6606 26.6221 80.3365C26.4606 80.0124 26.3711 79.6578 26.3597 79.2961C26.3484 78.935 26.4155 78.5753 26.5565 78.2414C26.6975 77.9083 26.9089 77.6088 27.1766 77.3644C28.0653 76.676 29.1061 76.2099 30.2125 76.0031C32.8413 75.622 35.492 75.4068 38.1481 75.3607C53.7344 75.2136 69.3248 74.8927 84.9058 75.1462C94.0073 75.294 103.094 76.3888 112.184 77.1032C112.929 77.2497 113.651 77.4914 114.332 77.8227C115.343 78.1876 116.723 80.5861 116.258 81.5474C115.793 82.5087 115.134 83.6217 114.252 84.0722C111.127 85.6642 107.648 85.7167 104.227 85.7044C93.5907 85.6623 82.9308 86.4661 72.5581 84.8527Z" fill="black"/>
<path d="M70.5187 94.9412C81.5554 95.0909 92.5928 95.2218 103.629 95.4053C105.91 95.4195 108.189 95.5758 110.451 95.8727C111.528 96.0256 112.548 96.7011 113.551 97.221C114.631 97.7804 115.721 100.133 115.192 101.126C114.683 102.079 113.938 103.165 113.018 103.583C111.63 104.174 110.138 104.488 108.628 104.504C99.1159 104.742 89.6011 105.028 80.0882 105.004C70.5753 104.979 61.0519 104.801 51.5521 104.327C44.7237 103.986 37.92 103.091 31.1183 102.33C29.9917 102.189 28.9315 101.722 28.07 100.985C27.3255 100.183 26.7905 99.211 26.5123 98.1544C26.2767 97.4498 27.6658 95.6425 28.3642 95.5537C30.5994 95.1784 32.8549 94.9353 35.119 94.8258C46.918 94.7538 58.7177 94.7927 70.5174 94.7927L70.5187 94.9412Z" fill="black"/>
<path d="M58.378 123.588C50.454 123.302 42.5287 123.042 34.6067 122.713C31.9438 122.707 29.3422 121.917 27.1307 120.439C26.5141 120.012 26.0186 119.434 25.6922 118.76C25.3658 118.086 25.2197 117.339 25.2677 116.593C25.2938 115.275 26.6894 113.662 27.8923 113.191C31.1542 111.912 34.5502 111.988 37.9507 112.134C47.7585 112.553 57.574 112.862 67.3694 113.484C73.386 113.866 79.3734 114.725 85.3686 115.413C86.1042 115.57 86.8241 115.791 87.5213 116.073C88.1937 116.274 89.5672 118.062 89.2788 118.737C88.8655 119.709 88.3675 120.912 87.5369 121.384C86.2279 122.105 84.7756 122.528 83.283 122.622C77.6328 122.986 71.9722 123.206 66.3129 123.4C63.6727 123.493 61.026 123.417 58.3825 123.417L58.378 123.588Z" fill="black"/>
<path d="M43.1534 45.4441C39.4645 45.2127 35.277 45.0767 31.1279 44.6288C29.2531 44.3509 27.4284 43.8051 25.7101 43.0082C25.1882 42.7803 24.7414 42.4103 24.4211 41.9409C24.101 41.4715 23.9202 40.9217 23.8998 40.3545C23.808 39.0885 25.1236 37.1289 26.2627 36.8456C26.622 36.7214 26.9893 36.6217 27.3622 36.5475C36.4513 35.5914 45.5496 35.1699 54.6622 36.2012C55.4148 36.3003 56.1455 36.5245 56.8239 36.864C57.5097 37.1765 58.1091 37.65 58.5707 38.244C59.0323 38.838 59.3422 39.5346 59.4739 40.2741C59.6959 41.3969 58.3335 43.4902 57.154 43.883C56.1095 44.3207 55.0171 44.6348 53.8992 44.8199C50.4883 45.1038 47.0675 45.2295 43.1534 45.4441Z" fill="black"/>
</g>
<defs>
<clipPath id="clip0">
<rect width="138" height="164" fill="white" transform="translate(0.777344)"/>
</clipPath>
</defs>
</svg>

<svg xmlns="http://www.w3.org/2000/svg" width="139" height="164" fill="none" viewBox="0 0 139 164"><g fill="#000" clip-path="url(#a)"><path d="M138.217 84.046c0 14.78.045 29.559-.03 44.339a85 85 0 0 1-.694 11.329c-1.003 7.138-4.732 12.692-10.745 16.7a31.65 31.65 0 0 1-14.792 5.387 324.7 324.7 0 0 1-60.407.37c-7.958-.693-15.999-.717-23.744-2.917a76 76 0 0 1-11.782-4.152c-7.314-3.459-11.733-9.345-13.451-17.294a62 62 0 0 1-1.658-13.497q.186-38.086.26-76.176c.084-7.58.67-15.146 1.755-22.65a38.8 38.8 0 0 1 2.603-9.84C9.076 7.293 15.356 2.243 24.666 1.702 34.92 1.106 45.184.57 55.451.342 64.96.126 74.482.2 83.991.427c7.22.174 14.43.778 21.643 1.216a9.8 9.8 0 0 1 5.259 1.957 152 152 0 0 1 25.039 23.163c2.129 2.438 2.718 5.202 2.669 8.397-.265 16.293-.367 32.588-.527 48.883zm-63.163 71.527c9.524-.346 20.156-.713 30.789-1.132a69 69 0 0 0 6.811-.592 17 17 0 0 0 9.125-4.32c3.822-3.418 6.379-7.564 6.834-12.69.435-4.892.567-9.816.708-14.729.26-9.075.446-18.15.628-27.225.083-4.16.464-8.358.05-12.473-1.03-10.205-.638-20.419-.673-30.628a416 416 0 0 0-.181-11.344c-.056-1.865-1.73-3.315-3.84-3.386-4.937-.168-9.879-.209-14.812-.45a47 47 0 0 1-6.753-.901c-1.992-.39-4.076-2.846-4.301-4.85a43 43 0 0 1-.326-4.517c-.027-4.538.03-9.075.025-13.613a3.43 3.43 0 0 0-.866-2.01 3.45 3.45 0 0 0-1.91-1.08c-1.135-.103-2.27-.233-3.407-.252-14.06-.242-28.12-.518-42.18-.667-5.697-.06-11.397.172-17.096.276-4.192.103-8.332.95-12.225 2.502-5.433 2.115-8.518 6.165-9.025 11.988a40 40 0 0 0 .056 5.668c.69 12.482.439 24.964.192 37.454-.383 19.296-.599 38.597-.755 57.896-.07 4.54.189 9.079.775 13.582a14.5 14.5 0 0 0 2.675 6.821 14.6 14.6 0 0 0 5.676 4.656 34.7 34.7 0 0 0 7.493 2.593 87.3 87.3 0 0 0 16.905 2.352c9.5.269 18.993.677 29.608 1.071m39.472-126.504c1.822-.096 3.32-.075 4.769-.3.536-.084 1.048-.693 1.432-1.173a1.13 1.13 0 0 0-.158-1.012 37.7 37.7 0 0 0-9.711-8.909 2.1 2.1 0 0 0-1.652.458c-.137 2.917-.206 5.844-.095 8.761a2.24 2.24 0 0 0 1.376 1.564c1.329.3 2.68.503 4.039.61"/><path d="M69.001 56.371c11.026.152 22.052.284 33.077.47 2.661.017 5.319.174 7.963.47 1.482.287 2.927.741 4.306 1.352 1.141.42 2.457 2.484 2.418 3.616-.038 1.108-1.562 3.134-2.572 3.53-3.601 1.41-7.376 1.689-11.184 1.745-7.605.11-15.212.394-22.812.259-9.878-.178-19.75-.682-29.624-1.075a1288 1288 0 0 1-18.227-.832 8.3 8.3 0 0 1-5.25-1.928 3.65 3.65 0 0 1-1.453-2.926c.065-1.303 1.253-3.278 2.408-3.488a32.5 32.5 0 0 1 5.592-.764c11.787-.07 23.575-.035 35.362-.035zm3.557 28.482c-10.484-.273-20.747-.48-31.004-.84a85 85 0 0 1-10.185-1.017 11.7 11.7 0 0 1-4.073-1.823 2.515 2.515 0 0 1-.74-2.932c.142-.333.353-.632.62-.877a7.1 7.1 0 0 1 3.037-1.36 63 63 0 0 1 7.935-.643c15.586-.147 31.177-.468 46.758-.215 9.101.148 18.188 1.243 27.278 1.957a8.8 8.8 0 0 1 2.148.72c1.011.365 2.391 2.763 1.926 3.724s-1.124 2.075-2.006 2.525c-3.125 1.592-6.604 1.645-10.025 1.632-10.636-.042-21.296.762-31.669-.851m-2.039 10.088c11.036.15 22.074.28 33.11.464 2.281.014 4.56.17 6.822.468 1.077.153 2.097.828 3.1 1.348 1.08.56 2.17 2.912 1.641 3.905-.509.953-1.254 2.039-2.174 2.457a11.5 11.5 0 0 1-4.39.921c-9.512.238-19.027.524-28.54.5s-19.036-.203-28.536-.677c-6.828-.341-13.632-1.236-20.434-1.997a5.8 5.8 0 0 1-3.048-1.345 6.65 6.65 0 0 1-1.558-2.83c-.235-.705 1.154-2.513 1.852-2.601a58 58 0 0 1 6.755-.728c11.799-.072 23.599-.033 35.398-.033zm-12.141 28.647c-7.924-.286-15.85-.546-23.771-.875a13.5 13.5 0 0 1-7.476-2.274 4.35 4.35 0 0 1-1.863-3.846c.026-1.318 1.421-2.931 2.624-3.402 3.262-1.279 6.658-1.203 10.059-1.057 9.807.419 19.623.728 29.418 1.35 6.017.382 12.004 1.241 18 1.929q1.105.236 2.152.66c.673.201 2.046 1.989 1.758 2.664-.413.972-.911 2.175-1.742 2.647a10.1 10.1 0 0 1-4.254 1.238c-5.65.364-11.31.584-16.97.778-2.64.093-5.287.017-7.93.017zM43.153 45.444c-3.688-.231-7.876-.367-12.025-.815a19.8 19.8 0 0 1-5.418-1.62 3.01 3.01 0 0 1-1.81-2.654c-.092-1.267 1.224-3.226 2.363-3.51q.539-.186 1.1-.297c9.088-.957 18.187-1.378 27.3-.347a6.8 6.8 0 0 1 2.16.663 4.66 4.66 0 0 1 1.748 1.38c.461.594.771 1.29.903 2.03.222 1.123-1.14 3.216-2.32 3.609a14.6 14.6 0 0 1-3.255.937c-3.41.284-6.831.41-10.746.624"/></g><defs><clipPath id="a"><path fill="#fff" d="M.777 0h138v164h-138z"/></clipPath></defs></svg>
